24x24/apps/kscreensaver.svg

<svg height="24" width="24" xmlns="http://www.w3.org/2000/svg"><rect height="20" opacity=".2" rx="6" width="20" x="2" y="2.5"/><rect fill="#7843b1" height="20" rx="6" width="20" x="2" y="2"/><path d="m11.5 6.5-.373 1.127-1.127.373 1.127.373.373 1.127.373-1.127 1.127-.373-1.127-.373zm-4.95.05-.62 1.88-1.88.62 1.88.622.62 1.879.622-1.88 1.879-.62-1.88-.621zm7.9.75-.186.563-.565.188.565.185.185.565.188-.565.562-.185-.562-.188zm1.048 2.2a3.89 3.89 0 0 1 .897 2.484 3.91 3.91 0 0 1 -3.91 3.91 3.89 3.89 0 0 1 -2.485-.895 4.55 4.55 0 0 0 4.44 3.502 4.56 4.56 0 0 0 4.56-4.561 4.55 4.55 0 0 0 -3.502-4.44z" opacity=".2"/><g fill="#f4f4f7"><path d="m8 2c-3.324 0-6 2.676-6 6v.5c0-3.324 2.676-6 6-6h8c3.324 0 6 2.676 6 6v-.5c0-3.324-2.676-6-6-6z" opacity=".1"/><path d="m15.498 9c.557.676.896 1.54.896 2.484a3.91 3.91 0 0 1 -3.91 3.91 3.889 3.889 0 0 1 -2.484-.896 4.55 4.55 0 0 0 4.439 3.502 4.561 4.561 0 0 0 4.561-4.561 4.55 4.55 0 0 0 -3.502-4.439zm-8.948 2.05-.62-1.88-1.88-.62 1.88-.62.62-1.88.62 1.88 1.88.62-1.88.62zm4.95-2.05-.373-1.127-1.127-.373 1.127-.373.373-1.127.373 1.127 1.127.373-1.127.373zm2.95-.7-.186-.564-.564-.186.564-.186.186-.564.186.564.564.186-.564.186z"/></g></svg>

<svg xmlns="http://www.w3.org/2000/svg" width="24" height="24" version="1"><rect style="opacity:.2" width="20" height="20" x="2" y="2.5" rx="6" ry="6"/><rect style="fill:#7843b1" width="20" height="20" x="2" y="2" rx="6" ry="6"/><path style="opacity:.2" d="m11.5 6.5-.373 1.127L10 8l1.127.373L11.5 9.5l.373-1.127L13 8l-1.127-.373zm-4.95.05-.62 1.88-1.88.62 1.88.622.62 1.879.622-1.88 1.879-.62-1.88-.621zm7.9.75-.186.563-.565.188.565.185.185.565.188-.565.562-.185-.562-.188zm1.048 2.2a3.89 3.89 0 0 1 .897 2.484 3.91 3.91 0 0 1-3.91 3.91A3.89 3.89 0 0 1 10 14.999a4.55 4.55 0 0 0 4.44 3.502A4.56 4.56 0 0 0 19 13.94a4.55 4.55 0 0 0-3.502-4.44z"/><path style="opacity:.1;fill:#f4f4f7" d="M8 2C4.676 2 2 4.676 2 8v.5c0-3.324 2.676-6 6-6h8c3.324 0 6 2.676 6 6V8c0-3.324-2.676-6-6-6z"/><path style="fill:#f4f4f7" d="M15.498 9c.557.676.896 1.54.896 2.484a3.91 3.91 0 0 1-3.91 3.91A3.889 3.889 0 0 1 10 14.498 4.55 4.55 0 0 0 14.439 18 4.561 4.561 0 0 0 19 13.439 4.55 4.55 0 0 0 15.498 9zM6.55 11.05l-.62-1.88-1.88-.62 1.88-.62.62-1.88.62 1.88 1.88.62-1.88.62zM11.5 9l-.373-1.127L10 7.5l1.127-.373L11.5 6l.373 1.127L13 7.5l-1.127.373zM14.45 8.3l-.186-.564-.564-.186.564-.186.186-.564.186.564.564.186-.564.186z"/></svg>
